X:1
T:Trio Sonata C-Dur Op.2 No.3
T:Arcangelo Corelli (1653 — 1713) Arr. by :  Alfred Moffat (1866-1950)
T:Trio Sonata C-Dur Op.2 No.3 
T:Transcribed for Recorder, Traverso and Basso continuo from IMSLP#372335 PDF File
T:Public Domain - Non-PD EU
T:Public Domain - Non-PD EU
T:Public Domain - Non-PD EU
T:Public Domain - Non-PD EU
T:Public Domain - Non-PD EU
C:Arcangelo Corelli (1653 — 1713)
C:
Z:Public Domain - Non-PD EU
%%score [ 1 2 3 ] { ( 4 6 8 9 ) | ( 5 7 ) }
L:1/8
Q:1/4=50
M:4/4
K:C
V:1 treble nm="Alto Recorder" snm="A. Rec."
V:2 treble nm="Frauto trverso" snm="Trv."
V:3 bass nm="Viola da gamba" snm="Vla. d. g."
V:4 treble nm="Harpsichord" snm="Hch."
V:6 treble 
V:8 treble 
V:9 treble 
V:5 bass 
V:7 bass 
V:1
"^Largo""^1. Preludio" z/ g/ | (g>f)(f>e) e3 z/ g/ | (a>g)(f>e) d3 (d/e/) | ff f>f (fe) z3/2 g/ | %4
 (a>d)(d>c) c2 (g>g) | (f3 g/f/) e2 e>e | (d3 e/d/) (c3!f! a/g/) | (f/e/d/c/) (B>A) A2!p! c>c | %8
 (cB) f>f (fe) g2- | g2 f4 e2- | e2 d4 cB | A2 f4!f! e2- | e2 _e2 d4 | !fermata!c7 |] %14
[M:4/4][Q:1/4=100]"^Allegro""^2. Allemanda"!mf! g | g3 g f/e/f/g/ f/a/g/f/ | %16
 e/d/e/f/ e/g/f/e/ de d>d | eg g(a/g/) ff f(g/f/) | ee e(f/e/) d/c/d/e/ d/f/e/d/ | %19
 c/B/c/d/ c/e/d/c/ B e2 d/c/ | BcB>B A!p!e f2- | f(g/f/) e2- e(f/e/) d2 | %22
 d(e/d/) c2- c(d/c/) B/c/A/B/ | c3 g a3 a | b3!f! c' (ag)(fe) | Td3 c c3 ::!mf! g | %27
 g3 g f/g/f/e/ d/e/d/c/ | B e2 d/c/ BcB>A | A!p!e f2- f(g/f/) e(f/e/) | dG g2- g(a/g/) f(g/f/) | %31
 eA a2- a(b/a/) g2- | g(a/g/) ^f/g/e/f/!f! gG c2- | c(d/c/) BA/B/ c2!p! g2- | g2 f4 e2- | %35
 e2 d>c BG z!f! g | f2 e2 d2 e>f | Td3 c !fermata!c3 :| z/8 | %39
[M:3/2][Q:1/2=60]"^3. Adagio. \n"!p! e4 | d8 e4 | c8 f4 | c4 (B2 c2) (d2 e2) | c4 f8- | f4 e8- | %45
 e4 A4 d4- | d4 G4 (c2 B2) | A4 A4 B4 | c8!f! e4 | (AB c2) (c6 B2) | c8 e4 |!p! (^G8 A4) | %52
 (B8 c4) | d4 (^e2 d2) (c2 B2) | c12- | c4 ^f8- | f4 b8- | b4 a8- | a4 (g2 ^f2) (e2 f2) | %59
!f! g4 (^f6 e2) | e8 z4 | c12- | c4 (B2 A2) (^G2 ^F2) | ^G4 (c2 B2) (A2 G2) | A4 f8 | d8 c4- | %66
 c4 (B6 A2) | A8 c4- | c4!f! (Td6 e2) | e12 |] %70
[M:2/2][Q:1/2=60]"^Presto."!mf!"^4. Allemanda" g3 g a3 a | g2 g2 f3 (g/f/) | e3 g (ad) d2 | c4 d4 | %74
 e4 ^f4 |!f! g3 d edcB | A2 B>c A4 | B4!p! e4 | f4 e2 a2- | a2 g2- ga f2- | fg e2 AB c2 | %81
!f! c3 B c4 ::!mf! g4 ^g4 | a4 b4 |!f! (c'3 a) f2 e2- | e2 d2 e3 e | %86
!p! (3((fgf) (3(efe) (3(ded) (3(cdc)) | (3(_BcB) (3(ABA) ^G(edc) |!f! =B4 A4 |!p! (^d3 c) B3 B | %90
 c2 d2 e3 e | f2 g2 a3 g | agfe d2 e2 | d4 (c3 e) |!f! fgac BG (c2- | c3 B) !fermata!c4 :| %96
V:2
 z/ e/ | (e>d)(d>c) c3 z/ e/ | (f>e)(d>c) B3 (B/B/) | cc d>d G(A/B/) c2- | c2 (c>B) c2 (e>e) | %5
 (ed/c/) (d>d) (dc) (c>c) | (cB/A/) (B>B) (BE)!f! A2- | A2 (A>^G) A2 z2 | z2!p! d>d (dc) z2 | %9
 a4 g4 | f4 e4- | e2 (dc) (BG)!f! (cB) | (AB) c4 B2 | !fermata!c7 |][M:4/4]!mf! e | %15
 e3 e d/c/d/e/ d/f/e/d/ | c/B/c/d/ c/e/d/c/ Bc c>B | ce e(f/e/) dd d(e/d/) | %18
 cc c(d/c/) B/A/B/c/ B/d/c/B/ | A/^G/A/B/ A/c/B/A/ G c2 B/A/ | ^GAA>G A!p!c c(d/c/) | %21
 B3 c/B/ Aa ab/a/ | g3 a/g/ f/e/d/e/ f/a/g/f/ | ec g2- gc f2- | fg/f/ e!f!G (AB)c>c | c3 B c3 :: %26
!mf! e | e3 e d/e/d/c/ B/c/B/A/ | ^G c2 B/A/ GAA>G | A2 z!p! d G2 z A | B2 z e A2 z B | %31
 c2 z f B2 z g | a2 z A!f! B2 z c | d4 e2 z2 |!p! a4 g4 | f6!f! e2 | d2 c2 BG c2 | %37
 c3 B !fermata!c3 :| z/8 |[M:3/2]!p! c4 | B8 B4- | B4 E4 A4- | A4 A6 ^G2 | A8 z4 | g12 | f12 | %46
 e8 e4 | d12 | c8!f! g4 | (f2 e2) (d6 c2) | c8 z4 | z8!p! e4 | (^G8 A4) | B12 | %54
 B4 (A2 G2) (^F2 E2) | ^D4 ^f8- | f4 e4 d4 | ^c4 ^d4 e4 | ^d4 B4 e4- |!f! e4 (e6 ^d2) | e4!p! B8- | %61
 B4 (A2 G2) (^F2 E2) | ^F4 d8- | d4 e8- | e4 A4 d4 | (^G4 E4) A4- | A4 (A6 ^G2) | A8 e4- | %68
 e4!f! (A6 ^G2) | ^G12 |][M:2/2]!mf! e3 e f3 f | e2 e2- ed/c/ d2- | dG c4 B2 | c4 G4 | G4 c4 | %75
!f! B3 B E^FGE | ^FD G2 G3 F | G4!p! c4 | d4 G2 z2 | d3 e c3 d | B3 g f2 e2 |!f! d4 e4 :: %82
!mf! e4 d4 | c4 ^e4 |!f! (e3 e) (A2 ^G2) | A4 ^G4 |!p! c2 B2 A2 G2 | F2 E2 D2 CA |!f! A3 ^G A4 | %89
!p! A2 z2 ^d3 =d | e2 f2 g3 g | c4 c3 g | fedc BG c2 | c3 B (c3 g) |!f! c3 A d2 e2 | %95
 d4 !fermata!e4 :| %96
V:3
 z/ C,/ | C,2 D,2 E,3 z/ C,/ | F,2 C,2 G,3 G,, | A,,2 B,,2 C,2 E,2 | F,2 G,2 C,2 C2 | %5
 A,2 B,2 CC, E,2 | ^F,2 ^G,2 A,A,,!f! C,2 | D,2 E,2 A,,2!p! E,>F, | G,G,,B,,G,, C,2 z E, | %9
 F,G,A,B, CC,E,C, | D,C,B,,G,, C,D,E,C, | F,G,A,F, G,G,, z!f! E, | F,2 ^F,2 G,2 G,,2 | %13
 !fermata!C,7 |][M:4/4]!mf! C, | C,3 C, D,2 z D, | E,2 z E, F,C,G,G,, | C,C C2 z B, B,2 | %18
 z A, A,2 z G, G,2 | z F, F,2 z E,C,D, | E,D,E,E,, A,,!p!A, A,B,/A,/ | %21
 G,G, G,A,/G,/ F,F, F,G,/F,/ | E,E, E,F,/E,/ D,3 G,, | C,D,E,C, F,G,A,F, | G,G,, z!f! E, F,2 C,2 | %25
 G,2 G,,2 C,3 ::!mf! C, | C,2 z C, D,2 z D, | E,E,C,D, E,D,E,E, | A,2 z!p! B, C2 z D/C/ | %30
 B,2 z ^C D2 z E/D/ | =C2 z D E2 z B, | CB,/C/ DD!f! G,2 z E, | F,D,G,G,, C,3!p! E, | %34
 F,G,A,B, CC,E,C, | F,G,A,F, G,2 z!f! E, | F,2 C,2 G,2 C,2 | G,,4 !fermata!C,3 :| z/8 | %39
[M:3/2]!p! A,4 | A,8 ^G,4 | A,4 C,4 D,4 | E,4 E,8 | A,,4 A,4 B,4 | C8 C,4 | D,8 D,4 | E,8 E,4 | %47
 F,4 F,4 G,4 | A,8!f! E,4 | F,4 G,4 G,,4 | C,8 A,,4 |!p! (B,8 C4) | (E,8 C,4) | ^G,8 E,4 | %54
 A,,8 A,,4 | B,,8 B,,4 | E,8 ^G,,4 | A,,8 A,,4 | B,,8 C,4 |!f! A,,4 B,,8 | E,,8!p! ^G,4 | %61
 A,4 A,,8 | D,8 D,4 | E,8 E,4 | F,8 D,4 | E,8 D,4- | D,4 E,4 E,,4 | A,,8 A,4- | A,4!f! F,8 | %69
 E,12 |][M:2/2]!mf! .C,.D,.E,.C, .F,.G,.A,.B, | .C.C,.E,.C, .D,.E,.F,.D, | %72
 .E,.F,.G,.E, .F,.D,.G,.G,, | .C,.C,.B,,.A,, .B,,.A,,.B,,.G,, | .C,.D,.C,.B,, .A,,.G,,.^A,,.D, | %75
!f! .G,.A,.B,.B,, .C,.D,.E,.C, | .D,.D.B,.G, .C.A,.D.D, | .G,.A,.G,.=F,!p! .E,.D,.E,.C, | %78
 .B,,.A,,.B,,.G,, .C,.C.B,.A, | .B,.A,.B,.G, .A,.G,.A,.=F, | .G,.F,.G,.E, .F,.G,.A,.E, | %81
!f! F,D,G,G,, C,4 ::!mf! .C.E.D.C .B,.C.D.B, | .A,.B,.C.A, .^G,.^F,.G,.E, | %84
!f! .A,.B,.C.C, D,2 E,2 | F,4 E,4 | A,2 G,2 F,2 E,2 | D,2 C,2 B,,2 A,,2 |!f! E,3 E, A,,^B,A,G, | %89
!p! ^F,E,F,D, G,A,G,=F, | E,C,B,,G,, C,CB,C | A,F,E,C, F,G,A,E, | F,G,A,F, G,F,E,C, | %93
 F,D,G,G,, C,CB,G, |!f! A,E,F,C, G,2 C,2 | G,,4 !fermata!C,4 :| %96
V:4
 z | [Ge]2 [Gd]2 G4 | [Af]>[Ge][Fd]>[Ec] [DB]4 | z AGG (GA/B/ c2) | (c3 B [EGc]2) (e2 | %5
 (e)A d2- dG c2-) | (cB/A/ B2- BA/^G/ A2) | (AB/c/ d2 [EAc]2) (C>D) | G2 G2 G2 c2 | (ABcd G2 ce) | %10
 (ed/c/ d2- dc/B/ c.G) | (A3 d) [DGB]2 [CGc]2 | [CFA]2 (c4 B2) | !fermata![CEc]7 |][M:4/4] z | %15
 z (CeG) z (FdB) | z (GcC) G2 DG | [EG]/[DF]/[CE]/[DF]/ Gc D/C/B,/C/ D z | %18
 (E/D/C/D/ E) z z [B,FG] [B,FG]2 | z ([CFA] A2) z2 ([Ec][DB]/[CA]/) | ([B,^G][CA] A>^G Ac cd/c/) | %21
 B2- Bc/B/ A2- AB/A/ | G2- GA/G/ F2- FG/F/ | EFGc ABcA | (G3 c) [CFA]2 [EGc]2 | c2- B2 c3 :: z | %27
 z (CeG) z (FdB) | [^GB] ([Ac]2 [DB]/[CA]/) [B,G][CA] AG | [CEA]2 z =G G2 z F | (Gd) z A A2 z G | %31
 (Ae) z [Af] B2 z d | (A2 d2) [GB][Ac]/[Bd]/ e2 | d2 [Bd]2 [EGc]3 G | ABcd G2 c2 | %35
 ABcA [GB]2 [Gcg]2 | [Adf]2 [Gce]2 [Bd]2 [EGc]2 | c2- B2 !fermata![EGc]3 :| z/8 |[M:3/2] ([EAc]4 | %40
 [DB]12 | [CEA]4 [EAe]4 [FB]4 | [Ec]4 [EB]8) | ([EAc]4 (c4 d4) | [Fd]4 [Ec]8 | [Ec]4 [DB]8) | %46
 ([DB]4 [Cc]4 [CG]4 | [CFA]4 d2 c2 B4) | ([CEc]4 [EAc]4 [Gcg]4 | [Acf]4 c4 B4) |!>(! c12!>)! | %51
 e4 (f2 e2 d2 c2) | (B4 e8) | (e4 B4 e2 d2) | c4 (c2 B2 A2 G2) | (^F6 c2 B2 A2) | %56
 ([EG]2 [^FA]2 [GB]4) [EBd]4 | B4 A8 | (([^DAB]4 [=FAd]4) [EAe]4) | ([EAc]4 ^F8 | [EGB]4) E8 | %61
 c6 B2 A2 G2 | (^F8 [^GB]2 [FA]2) | ^G8 ([Ac]2 [GB]2) | (A8 d4) | [Ed]8 [Ac]4 | [CFA]4 (A4 ^G4) | %67
!<(! ([CDEA]6!<)! [^GB]2 [Ac]2 [Bd]2) | [ce]4 [DAd]6 [E^Ge]2 |!>(! [E^Ge]4!>)! !fermata![EG]8 |] %70
[M:2/2] c4 .A.B.c.d | .[Ee].c.G.E .F.G.A.B | .c.d.e.g d2 B2 | E4 .d.c.d.B | [Gc]4 c2 B2 | %75
 .B.c.d.G c3 B | ([^FA]2 G>A) A4 | [DGB]4 c4 | .d.c.d.B c3 z | .D.C.D.B, .C.B,.C.A, | %80
 .B,.D.B,.C .A,.B, C2 | D4 C4 :: [Gce]4 [^Ge]4 |!<(! [Ace]4!<)! e4 | [Ace]2 [EAc]2 .B.d.c.B | %85
 .A.B.c.A e3 z | (3z cf (3z Be (3z Ad (3z Gc | (3z!<(! F_B (3z EA ^G2!<)! A2- | A3 ^G [CA]2 z2 | %89
 [Dd]4 [DGB]4 | [CGc]2 [Gc]2 [Gce]4 | [Fcf]2 [ceg]2 [cfa]2 eg | [Af][Ge][Fd][Ec] ([GB]G c2) | %93
 [Ac-]2 [GB]2 [EGc]2 z2 | c4 [DGB]2 [EGc]2 | (c2 B2 !fermata![EGc]4) :| %96
V:5
 z | [C,C]2 [D,B,]2 E,2 C,2 | C4 x4 | A,,2 B,,2 C,2 E,2 | F,2 G,2 C,2 C2 | A,2 B,2 C2 E,2 | %6
 ^F,2 ^G,2 A,2 C,2 | D,2 E,2 A,,2 (E,>F,) | G,G,,B,,G,, C,2 z E, | F,G,A,B, CC,E,C, | %10
 D,C,B,,G,, C,D,E,C, | F,G,A,F, G,2 z [E,,E,] | [F,,F,]2 [^F,,^F,]2 [G,,G,]2 [G,,,G,,]2 | %13
 !fermata![C,,C,]7 |][M:4/4] z | C,2 z C, D,2 z D, | E,2 z E, G,C, G,G,, | %17
 C,2 C2 B,/A,/G,/A,/ B, z | (C/B,/A,/B,/ C) z z G, G,2 | z F, F,2 z E,C,D, | %20
 E,D,E,E,, A,,A, A,B,/A,/ | =G,G, G,A,/G,/ F,F, F,G,/F,/ | E,E, E,F,/E,/ D,3 G,, | %23
 C,D,E,C, F,G,A,F, | G,G,, z [E,,E,] [F,,F,]2 [C,,C,]2 | [G,,G,]2 [G,,,G,,]2 [C,,C,]3 :: C, | %27
 C,2 z C, D,2 z D, | E,E,C,D, E,D,E,E, | [A,,A,]2 z B, C2 z (D/C/) | B,2 z ^C D2 z E/D/ | %31
 =C2 z D E2 z B, | CB,/C/ DD, G,2 z E, | F,D, G,G,, C,3 E, | F,G,A,B, CC,E,C, | %35
 F,G,A,F, G,2 [E,,E,]2 | [F,,F,]2 [C,,C,]2 [G,,G,]2 [C,,C,]2 | [G,,,G,,]4 !fermata![C,,C,]3 :| %38
 z/8 |[M:3/2] A,4 | A,8 ^G,4 | A,4 A,8 | A,4 (A,4 ^G,4) | [A,,A,]4 A,4 B,4 | C8 C,4 | D,8 D,4 | %46
 E,8 E,4 | F,4 [F,,F,]4 [G,,G,]4 | [A,,A,]8 [E,,E,]4 | [F,,F,]4 [G,,G,]4 [G,,,G,,]4 | [C,,C,]12 | %51
 B,8 C4 | E,8 C,4 | [^G,,E,]8 [E,,E,]4 | (E,8 C4) | (C4 B,2 A,2 G,2 ^F,2) | E,8 ^G,,4 | A,,8 A,,4 | %58
 B,,8 C,4 | A,,4 B,,8 | E,8 ^G,4 | A,4 A,,8 | D,8 [D,,D,]4 | [E,,E,]8 [E,,E,]4 | %64
 [F,,F,]8 [D,,D,]4 | [E,,E,]8 [D,,D,]4 | [D,,D,]4 [E,,E,]4 E,,4 | [A,,A,]12- | %68
 [A,,A,]2 [=G,,=G,]2 [F,,F,]6 [E,,E,]2 | !fermata![E,,E,]12 |][M:2/2] C4 C4 | %71
 .C.C,.E,.C, .D,.E,.F,.D, | .E,.F,.G,.E, .F,.D,.G,.G,, | .C,.C.B,.A, B,2 A,2 | %74
 .C.D.C.B, .A,.G,.A,.D, | .G,.A,.B,.B,, .C,.D,.E,.C, | .D,.D.B,.G, .C.A,.D.D, | %77
 .G,.A,.G,.=F, .E,.D,.E,.C, | .B,,.A,,.B,,.G,, .C,.C.B,.A, | .B,.A,.B,.G, .A,.G,.A,.=F, | %80
 .G,.F,.G,.E, .F,.G,.A,.E, | .F,.D,.G,.G,, [C,E,G,]4 :: .C.E.D.C .B,.C.D.B, | %83
 .A,.B,.C.A, .^G,.^F,.G,.E, | .A,.B,.C.C, D,2 E,2 | F,4 E,3 z |[K:treble]!p! A2 G2 F2 E2 | %87
[K:bass] D2 C2 B,2 A,2 | E,3 E, A,B,A,G, | ^F,E,F,D, G,A,G,=F, | E,C,B,,G,, C,CB,C | %91
 A,F,E,C, F,G,A,E, | F,G,A,F, G,F,E,C, | F,D,G,G,, .C,CB,G, | A,E,F,C, [G,,G,]2 [C,,C,]2 | %95
 [G,,,G,,]4 !fermata![C,,C,]4 :| %96
V:6
 x | x4 (c2 eg) | x8 | C2 D2 x4 | [DA]2 [DG]2 x2 [EG]2 | F3 G E3 G | D3 E C3 E | F2 E2 x2 =G2 | %8
 (ED [DF]2) ([DF][CE]) x G | G2 F4 E2 | F4 E4 | E2 D2 x4 | x2 [C_EA]2 G3 F | x7 |][M:4/4] x | x8 | %16
 x4 ([B,D][CE]) C>B, | x8 | x8 | x8 | x2 B,2 CE F2 | FE/D/ E2- ED/C/ D2- | %22
 DC/B,/ C2- CB,/C/ DE/D/ | C3 E C4 | [B,D]2 [CE][CG] x4 | [DG]4 [EG]3 :: x | x8 | E2 x4 [B,E]2 | %29
 x3 D DE x2 | F2 x E (EF) x2 | E2 x2 (AG) x G | G2 ^F2 x2 cG | (AF GF) x4 | G2 F4 E2 | A2 x6 | %36
 x4 GF x2 | [DG]4 x3 :| x/4 |[M:3/2] x4 | F4 E8 | x12 | x12 | x4 F8 | G12 | F12 | E8 x4 | %47
 x4 [DA]4 D4 | x12 | x4 d8 | ([EG]6 [DF]2 [CE]4) | ^G8 ([EA]4 | [EFG]8) [EA]4 | B8 ^G4 | E8 x4 | %55
 ^D12 | x12 | [E^c]8 x4 | x12 | x4 B8 | x4 e8 | F12 | (E4 D2 C2 B,4) | (F4 E2 D2 C4) | C4 D4 F4 | %65
 (B4 ^G4) x4 | x4 E8 | x12 | x12 | x4 B,8 |][M:2/2] .E.F.G.E F4 | x8 | G4 .A.F.G.F | x4 [DG]4 | %74
 x4 D4 | D4 .E.^F G2 | x2 G2 G3 ^F | x4 .G.=F.G.E | [DG]4 E3 x | x8 | x8 | C2- B,2 C4 :: %82
 x4 (d2 B2) | x4 .B.A.B.^G | x4 A2 ^G2 | x4 ^G3 x | x8 | x4 DE CD | EDCB, x4 | AGA^F x4 | x8 | %91
 x6 c2 | x4 D2 C2 | D4 x4 | C3 E x4 | [DG]4 x4 :| %96
V:7
 x | x4 C4 | F,2 C,2 G,2 G,,2 | x8 | x8 | x8 | x8 | x8 | x8 | x8 | x8 | x8 | x8 | x7 |][M:4/4] x | %15
 x8 | x8 | x8 | x8 | x8 | x8 | x8 | x8 | x8 | x8 | x7 :: x | x8 | x8 | x8 | x8 | x8 | x8 | x8 | %34
 x8 | x8 | x8 | x7 :| x/4 |[M:3/2] x4 | x12 | x4 C,4 D,4 | E,4 E,8 | x12 | x12 | x12 | x12 | x12 | %48
 x12 | x12 | x12 | x12 | x12 | x12 | A,,12 | B,,12 | x12 | x12 | x12 | x12 | E,,8 x4 | x12 | x12 | %63
 x12 | x12 | x12 | x8 E,4 | x12 | x12 | x12 |][M:2/2] .C,.D,.E,.C, .F,.G,.A,.B, | x8 | x8 | x8 | %74
 x8 | x8 | x8 | x8 | x8 | x8 | x8 | x8 :: x8 | x8 | x8 | x8 |[K:treble] x8 |[K:bass] x8 | x8 | x8 | %90
 x8 | x8 | x8 | x8 | x8 | x8 :| %96
V:8
 x | x8 | x8 | x8 | x8 | x8 | x8 | x2 A^G x4 | x8 | x8 | x8 | x8 | x4 D4 | x7 |][M:4/4] x | x8 | %16
 x8 | x8 | x8 | x8 | x8 | x8 | x8 | x8 | x8 | x7 :: x | x8 | x8 | x8 | x4 z4 | x8 | x8 | x8 | x8 | %35
 x8 | x6 z2 | x7 :| x/4 |[M:3/2] x4 | x12 | x12 | x12 | x12 | x12 | x12 | x12 | x12 | x12 | x12 | %50
 x12 | x12 | x12 | x12 | x12 | x12 | x12 | x12 | x12 | x12 | x12 | x12 | x12 | x12 | x12 | x12 | %66
 x12 | x12 | x12 | x12 |][M:2/2] x8 | x8 | x8 | x8 | x8 | x8 | x8 | x8 | x8 | x8 | x8 | x8 :: x8 | %83
 x8 | x8 | x8 | x8 | x8 | x8 | x8 | x8 | x8 | x8 | x8 | x8 | x8 :| %96
V:9
 x | x8 | x8 | x8 | x8 | x8 | x8 | x8 | x8 | x8 | x8 | x8 | x8 | x7 |][M:4/4] x | x8 | x8 | x8 | %18
 x8 | x8 | x8 | x8 | x8 | x8 | x8 | x7 :: x | x8 | x8 | x8 | x8 | x8 | x8 | x8 | x8 | x8 | x8 | %37
 x7 :| x/4 |[M:3/2] x4 | x12 | x12 | x12 | x12 | x12 | x12 | x12 | x8 G2 F2 | x12 | x4 F8 | x12 | %51
 D8 x4 | x12 | E8 x4 | x12 | x12 | x12 | x12 | x12 | x4 E4 ^D4 | x4 B8 | x12 | x12 | B,8 x4 | x12 | %65
 x12 | x4 B,8 | x12 | x12 | x12 |][M:2/2] x8 | x8 | x8 | x8 | x8 | x8 | x8 | x8 | x8 | x8 | x8 | %81
 x8 :: x8 | x8 | x8 | x8 | x8 | x8 | x8 | x8 | x8 | x8 | x8 | x8 | FG A2 x4 | x8 :| %96

